Obsidian-SemiLight/actions/24s/office-chart-polar-stacked.svg

<svg viewBox="0 0 24 24" xmlns="http://www.w3.org/2000/svg"><path d="m12 4c-4.432 0-8 3.568-8 8s3.568 8 8 8 8-3.568 8-8-3.568-8-8-8zm0 1c1.365929 0 2.634027.3931964 3.708984 1.0644531l-2.65039 4.2421879c.519459.324855.870291.881266.923828 1.527343l4.988281-.416015c.015774.192614.029297.385213.029297.582031 0 3.878-3.122 7-7 7s-7-3.122-7-7 3.122-7 7-7zm0 1c-1.901441 0-3.5877931.8783098-4.6855469 2.25l3.1289059 2.503906c.365933-.45681.923165-.753906 1.556641-.753906v-.5-2zm-1.416016 7.416016-2.1230465 2.123046c.90375.903751 2.1540625 1.460938 3.5390625 1.460938v-1.5-1.5c-.554 0-1.054516-.222484-1.416016-.583984z" fill="#4d4d4d"/></svg>

<svg xmlns="http://www.w3.org/2000/svg" viewBox="0 0 24 24">
  <defs id="defs3051">
    <style type="text/css" id="current-color-scheme">
      .ColorScheme-Text {
        color:#4d4d4d;
      }
      </style>
  </defs>
 <path style="fill:currentColor;fill-opacity:1;stroke:none" 
     d="M 12 4 C 7.568 4 4 7.568 4 12 C 4 16.432 7.568 20 12 20 C 16.432 20 20 16.432 20 12 C 20 7.568 16.432 4 12 4 z M 12 5 C 13.365929 5 14.634027 5.3931964 15.708984 6.0644531 L 13.058594 10.306641 C 13.578053 10.631496 13.928885 11.187907 13.982422 11.833984 L 18.970703 11.417969 C 18.986477 11.610583 19 11.803182 19 12 C 19 15.878 15.878 19 12 19 C 8.122 19 5 15.878 5 12 C 5 8.122 8.122 5 12 5 z M 12 6 C 10.098559 6 8.4122069 6.8783098 7.3144531 8.25 L 10.443359 10.753906 C 10.809292 10.297096 11.366524 10 12 10 L 12 9.5 L 12 7.5 L 12 6 z M 10.583984 13.416016 L 8.4609375 15.539062 C 9.3646875 16.442813 10.615 17 12 17 L 12 15.5 L 12 14 C 11.446 14 10.945484 13.777516 10.583984 13.416016 z "
     class="ColorScheme-Text"
     />
</svg>
